X: 247
T: Sophie's Dancing Feet
C:Aly Bain
R:reel
M:4/4
L:1/8
K:D
"D"FGAF "G"GABG|"D"FAdf afdf|"G"gabg "Em"efge|"A" cdec ABAG|
"D"FGAF "G"GABG|"D"FAdf afdf|"G"gabg "Em"efge|1 "A"cABc "D"d2AG:|2 "A"cABc "D"d2cd||
"A" eA~A2 eAgA|"D"fA~A2 fAaA|"G"gfeg "D"fedf|"A" efgf edcd|
"A"eA~A2 eAgA|"D"fA~A2 fAaf|"G"bagf gfed|1 "A"cABc "D"d2cd:|2"A" cABc "D"d2AG||


